icons/surround-sound-fill.svg

<svg viewBox="0 0 24 24" fill="currentColor" xmlns="http://www.w3.org/2000/svg">
    <path d="M3 3H21C21.5523 3 22 3.44772 22 4V20C22 20.5523 21.5523 21 21 21H3C2.44772 21 2 20.5523 2 20V4C2 3.44772 2.44772 3 3 3ZM7.05025 7.12132C5.7835 8.38807 5 10.1381 5 12.0711C5 14.0041 5.7835 15.7541 7.05025 17.0208L8.46447 15.6066C7.55964 14.7018 7 13.4518 7 12.0711C7 10.6904 7.55964 9.44036 8.46447 8.53553L7.05025 7.12132ZM16.9497 7.12132L15.5355 8.53553C16.4404 9.44036 17 10.6904 17 12.0711C17 13.4518 16.4404 14.7018 15.5355 15.6066L16.9497 17.0208C18.2165 15.7541 19 14.0041 19 12.0711C19 10.1381 18.2165 8.38807 16.9497 7.12132ZM12 15.0711C13.6569 15.0711 15 13.7279 15 12.0711C15 10.4142 13.6569 9.07107 12 9.07107C10.3431 9.07107 9 10.4142 9 12.0711C9 13.7279 10.3431 15.0711 12 15.0711ZM12 13.0711C11.4477 13.0711 11 12.6234 11 12.0711C11 11.5188 11.4477 11.0711 12 11.0711C12.5523 11.0711 13 11.5188 13 12.0711C13 12.6234 12.5523 13.0711 12 13.0711Z"/>
</svg>

<svg xmlns="http://www.w3.org/2000/svg" viewBox="0 0 24 24">
    <g>
        <path fill="none" d="M0 0h24v24H0z"/>
        <path d="M3 3h18a1 1 0 0 1 1 1v16a1 1 0 0 1-1 1H3a1 1 0 0 1-1-1V4a1 1 0 0 1 1-1zm4.05 4.121A6.978 6.978 0 0 0 5 12.071c0 1.933.784 3.683 2.05 4.95l1.414-1.414A4.984 4.984 0 0 1 7 12.07c0-1.38.56-2.63 1.464-3.535L7.05 7.12zm9.9 0l-1.414 1.415A4.984 4.984 0 0 1 17 12.07c0 1.38-.56 2.63-1.464 3.536l1.414 1.414A6.978 6.978 0 0 0 19 12.07a6.978 6.978 0 0 0-2.05-4.95zM12 15.071a3 3 0 1 0 0-6 3 3 0 0 0 0 6zm0-2a1 1 0 1 1 0-2 1 1 0 0 1 0 2z"/>
    </g>
</svg>
